assets/img/braze_icons/fingerprint-04.svg

<svg fill="none" height="24" viewBox="0 0 24 24" width="24" xmlns="http://www.w3.org/2000/svg"><g clip-rule="evenodd" fill="#801ed7" fill-rule="evenodd"><path d="m6.99989 11c0-2.76142 2.23858-5 5.00001-5 2.7614 0 5 2.23858 5 5 0 1.0625-.0723 2.1092-.2125 3.1353-.0747.5472-.5789.9302-1.1261.8555s-.9302-.5789-.8555-1.1261c.1279-.9368.1941-1.8931.1941-2.8647 0-1.65685-1.3432-3-3-3-1.6569 0-3.00001 1.34315-3.00001 3 0 2.9356-.84026 5.6658-2.29215 7.9738-.01403.0223-.02772.0447-.04108.0672-.28201.4749-.89557.6312-1.37043.3492-.47485-.2821-.63118-.8956-.34916-1.3705.02206-.0371.04465-.0741.06776-.1108 1.2571-1.9984 1.98506-4.361 1.98506-6.9089zm8.44311 5.0378c.5314.1504.8403.7031.6899 1.2345-.3956 1.3981-.92 2.7426-1.5596 4.0192-.2474.4938-.8482.6936-1.342.4462s-.6936-.8482-.4462-1.342c.5838-1.1653 1.0624-2.3923 1.4234-3.668.1504-.5314.7031-.8403 1.2345-.6899z"/><path d="m7.49926 3.20465c1.3248-.76635 2.86314-1.20465 4.50074-1.20465 4.9705 0 9 4.02944 9 9 0 2.5667-.3584 5.0513-1.0286 7.4057-.1512.5312-.7043.8392-1.2355.6881-.5312-.1512-.8393-.7044-.6881-1.2356.62-2.1781.9522-4.4785.9522-6.8582 0-3.86599-3.134-7-7-7-1.2767 0-2.4707.34086-3.49929.93586-.47806.27655-1.08979.11318-1.36633-.36488-.27655-.47806-.11318-1.08979.36488-1.36633zm-1.92829 2.92974c.47806.27655.64142.88828.36488 1.36634-.59501 1.02858-.93587 2.2226-.93587 3.49927 0 1.7193-.39515 3.3491-1.10052 4.8011-.24133.4968-.83968.7038-1.33644.4625-.49677-.2413-.70384-.8397-.46251-1.3364.57594-1.1856.89947-2.5172.89947-3.9272 0-1.63763.4383-3.17593 1.20466-4.50073.27654-.47806.88827-.64142 1.36633-.36488z"/><path d="m11.9999 10c.5522 0 1 .4477 1 1 0 3.7111-1.065 7.1765-2.9064 10.1037-.29407.4675-.91143.608-1.37891.314-.46748-.2941-.60806-.9115-.31399-1.379 1.6466-2.6176 2.5993-5.7154 2.5993-9.0387 0-.5523.4477-1 1-1z"/></g></svg>

<svg width="24" height="24" viewBox="0 0 24 24" fill="none" xmlns="http://www.w3.org/2000/svg">
<path fill-rule="evenodd" clip-rule="evenodd" d="M6.99989 11C6.99989 8.23858 9.23847 6 11.9999 6C14.7613 6 16.9999 8.23858 16.9999 11C16.9999 12.0625 16.9276 13.1092 16.7874 14.1353C16.7127 14.6825 16.2085 15.0655 15.6613 14.9908C15.1141 14.9161 14.7311 14.4119 14.8058 13.8647C14.9337 12.9279 14.9999 11.9716 14.9999 11C14.9999 9.34315 13.6567 8 11.9999 8C10.343 8 8.99989 9.34315 8.99989 11C8.99989 13.9356 8.15963 16.6658 6.70774 18.9738C6.69371 18.9961 6.68002 19.0185 6.66666 19.041C6.38465 19.5159 5.77109 19.6722 5.29623 19.3902C4.82138 19.1081 4.66505 18.4946 4.94707 18.0197C4.96913 17.9826 4.99172 17.9456 5.01483 17.9089C6.27193 15.9105 6.99989 13.5479 6.99989 11ZM15.443 16.0378C15.9744 16.1882 16.2833 16.7409 16.1329 17.2723C15.7373 18.6704 15.2129 20.0149 14.5733 21.2915C14.3259 21.7853 13.7251 21.9851 13.2313 21.7377C12.7375 21.4903 12.5377 20.8895 12.7851 20.3957C13.3689 19.2304 13.8475 18.0034 14.2085 16.7277C14.3589 16.1963 14.9116 15.8874 15.443 16.0378Z" fill="#801ED7"/>
<path fill-rule="evenodd" clip-rule="evenodd" d="M7.49926 3.20465C8.82406 2.4383 10.3624 2 12 2C16.9705 2 21 6.02944 21 11C21 13.5667 20.6416 16.0513 19.9714 18.4057C19.8202 18.9369 19.2671 19.2449 18.7359 19.0938C18.2047 18.9426 17.8966 18.3894 18.0478 17.8582C18.6678 15.6801 19 13.3797 19 11C19 7.13401 15.866 4 12 4C10.7233 4 9.5293 4.34086 8.50071 4.93586C8.02265 5.21241 7.41092 5.04904 7.13438 4.57098C6.85783 4.09292 7.0212 3.48119 7.49926 3.20465ZM5.57097 6.13439C6.04903 6.41094 6.21239 7.02267 5.93585 7.50073C5.34084 8.52931 4.99998 9.72333 4.99998 11C4.99998 12.7193 4.60483 14.3491 3.89946 15.8011C3.65813 16.2979 3.05978 16.5049 2.56302 16.2636C2.06625 16.0223 1.85918 15.4239 2.10051 14.9272C2.67645 13.7416 2.99998 12.41 2.99998 11C2.99998 9.36237 3.43828 7.82407 4.20464 6.49927C4.48118 6.02121 5.09291 5.85785 5.57097 6.13439Z" fill="#801ED7"/>
<path fill-rule="evenodd" clip-rule="evenodd" d="M11.9999 10C12.5521 10 12.9999 10.4477 12.9999 11C12.9999 14.7111 11.9349 18.1765 10.0935 21.1037C9.79943 21.5712 9.18207 21.7117 8.71459 21.4177C8.24711 21.1236 8.10653 20.5062 8.4006 20.0387C10.0472 17.4211 10.9999 14.3233 10.9999 11C10.9999 10.4477 11.4476 10 11.9999 10Z" fill="#801ED7"/>
</svg>
